X:1
T:Tu solus qui facis mirabilia
T:Josquin desPrez edit BMarble
T:Tu solus qui facis mirabilia
T:Copyright © 2015 by The Choral Public Domain Library. Edition may be freely distributed, duplicated, performed or recorded.
T:Copyright © 2015 by The Choral Public Domain Library. Edition may be freely distributed, duplicated, performed or recorded.
T:Copyright © 2015 by The Choral Public Domain Library. Edition may be freely distributed, duplicated, performed or recorded.
T:Copyright © 2015 by The Choral Public Domain Library. Edition may be freely distributed, duplicated, performed or recorded.
C:Josquin desPrez
C:edit BMarble
Z:Alleluia verse for Corpus Christi
Z:Copyright © 2015 by The Choral Public Domain Library. Edition may be freely distributed, duplicated, performed or recorded.
%%score { ( 1 2 ) | ( 3 4 ) }
L:1/8
Q:1/2=40
M:4/4
K:F
V:1 treble nm="Choir" snm="Choir"
V:2 treble 
V:3 bass 
V:4 bass 
V:1
"^Part one:  You alone work wonders.  You alone are the Creator, and created us;  You alone are the Redeemer, and redeemed us by your most precious blood.In you alone we find refuge. In you alone we trust.None other do we worship,  Jesus Christ.To you we pour out our prayers.Hear our supplication, and grant us our request,O King of kindness."!p!!<(! G4!<)! G4 | %1
w: Tu so-|
w: |
[M:3/2] A4 z4 G4 | G2 G2 A3 G F2 _E2 | D4 z4!p! B4 | B4 A4 G4 | G4 F4 z4 | %6
w: lus qui|fa- cis mi- * bi- li-|a. Tu|so- lus Cre-|a- tor,|
w: * qui|fa- cis mi- ra bi- li-|a. *|||
!<(! A4 A2!<)!!>(! B4!>)! G2 | G4 z4 F4 | G2 G2 F4 _E4 | D4 z4 F4 |!<(! G2 ^F2 G6 A2!<)! | %11
w: qui cre- a- sti|nos, Tu|so- lus re- dem-|ptor, qui|re- de- mi- sti|
w: |||||
[M:2/2] A4 z4 |[M:3/2]!f! B4 A2 G2 (A3 F) | F4 z4!p! B4 | A2 G2 ^F6 G2 | [DG]8 z4 || %16
w: nos|san- gui- ne tu- *|o pre-|ti- o- sis- si-|mo.|
w: |||||
[M:4/4][Q:1/4=100] z8 | z8 | z8 | z8 | B4 B2 B2 | A6 A2 | (B3 A G2) ^F2 | G4 z2!f! B2 | %24
w: ||||In te so-||fi- * * di-|mus, nec|
w: ||||||||
 B2 B2 B2 B2 | A4 G4 | ^F4 z4 ||[M:2/2]!p! !-(!G8 | D8 | _E8 | !-)!D8 ||[M:3/4] z6 | z6 | z6 | z6 | %35
w: a- li- um ad-|o- ra-|mus:|Je-|su|Chri-|ste.|||||
w: |||||||||||
 B2 B2 B2 | (c3 B A2) | G2 G2 ^F2 | G4!f!!f! B2 | A2 (B2 G2) | F4 G2 | (A2 B2) G2 | A4 z2 || %43
w: ex- au- di|quod _ _|sup- pli- ca-|mus et|con- * ce-||pe- * ti-|mus:|
w: |||* et|con- ce- *|de quod|pe- * ti-|mus:|
[M:2/2]!p! [DG]8 | [_EG]8 | [D^F]8 | [=B,G]8 |] %47
w: Rex|be-|ni-|gne.|
w: ||||
"^Part two:  To love another would be deceitful;To love another would be great madness and sin.Hear our sighing, fill us with your grace,O King of kings, may we remainyour joyful servants forever."[Q:1/2=80] G8 | %48
w: |
w: D'un|
 A4 G4 | (d6 cB | A4) z4 | z8 | z8 | z8 | G8 | A4 G4 | (d6 cB | A4) z4 | z8 | z8 |!f! z4!f! d4- | %61
w: |||||||||||||
w: aul- tre\_a-|mer _ _|_||||D'un|aul- tre\_a-|mer _ _|_|||et|
 d4 c4 | (B6 AG) | [A,F]8 | z8 ||[M:3/4]!p!!p![Q:1/4=100] G2 G2 G2 | G4 G2 | G4 A2 | F4 z2 | %69
w: et pec-|ca- * *|tum.||Au- di nos-|tra su-|spi- ri-|a,|
w: _ pec-|ca- * *|tum.||||||
!f! B2 B2 B2 | B4 A2 | (A2 G2) ^F2 | G4 z2 ||[M:2/2]!p! [D=F]8 | [B,G]8 | [FA]8 | [=EG]8 || %77
w: Re- ple nos|tu- a|gra- * ti-|a,|O|rex|re-|gum.|
w: ||||||||
[M:3/4]!f! B2 B2 B2 | A4 B2 | (A2 F2) G2 | A4 z2 | A2 A2 c2 | B4 A2 | (G2 E2) ^F2 | G4 z2 || %85
w: Ut ad tu-|a ser-|vi- * ti-||si- sta- mus|cum lae-|ti- * ti-||
w: ||||||||
[M:2/2]!pp! [FA]8 | [DG]8 | [D^F]8 | ([B,G-]8 | [DG]8) |] %90
w: in|ae-|ter-|num.|_|
w: |||||
V:2
 D4 D4 |[M:3/2] F4 x4 E4 | E2 E2 F2 C2 (DB,) C2 | F,4 x4 G,4 | D4 F4 _E4 | _E4 D4 x4 | %6
w: ||* * mi- ra- * * *||||
 F4 F2 D4 =E2 | E4 x4 D4 | B,2 B,2 B,4 G,4 | G,4 x4 A,4 | C2 D2 (D3 C D2) (=F>E) |[M:2/2] F4 x4 | %12
w: ||||||
[M:3/2] F4 F2 E2 F4 | D4 x4 F4 | F2 _E2 D6 B,2 | x12 ||[M:4/4] x8 | x8 | x8 | x8 | G4 D2 E2 | %21
w: |||||||||
 (F3 E D2) C2 | (B,3 C B,2) A,2 | G,4 x2 G2 | G2 G2 G2 G2 | (F_EDC) (B,2 C2) | D4 x4 || %27
w: lum _ _ con-||||||
[M:2/2] !-(!D8 | G8 | G8 | !-)!^F8 ||[M:3/4] x6 | x6 | x6 | x6 | F2 F2 F2 | (G3 F E2) | D2 D2 C2 | %38
w: |||||||||||
 D4 B,2 | (F2 D2) E2 | (F2 D2) E2 | (F2 D2) E2 | [A,F]4 x2 ||[M:2/2] x8 | x8 | x8 | x8 |] z8 | z8 | %49
w: ||de _ quod|||||||||
 z8 | z2 F2 G2 A2 | B6 A2 | G4 ^F4 | G8 | z8 | z8 | z8 | z2 F2 G2 A2 | B6 A2 | G4 ^F4 | G8 | %61
w: ||set fal-|la- ci-|a;|||||set stul-|ti- ti-|a|
 G,4 A,4 | B,8 | x8 | x8 ||[M:3/4] D2 D2 D2 | D4 D2 | D4 E2 | C4 x2 | B,2 B,2 B,2 | (D3 E) F2 | %71
w: ||||||||||
 (F2 C2) D2 | B,4 x2 ||[M:2/2] x8 | x8 | x8 | x8 ||[M:3/4] F2 F2 F2 | F4 F2 | F4 E2 | (C2 D2) x2 | %81
w: |||||||||a _|
 A,2 A,2 A,2 | F4 F2 | (D2 E2) D2 | (=B,2 C2) x2 ||[M:2/2] x8 | x8 | x8 | x8 | x8 |] %90
w: _ _ _|||a *||||||
V:3
!p!!<(! G,4!<)! B,4 |[M:3/2] C4 z4 C4 | C2 C2 A,2 F,3 F, G,>A, | B,4 z4!p! D4 | B,4 C4 C4 | %5
w: |||||
w: |||||
w: Tu so-|lus qui|fa- cis * * * * *|* Tu|so- lus Cre-|
w: ||* * mi- * ra- bi- li-|a. *||
 G,4 B,4 z4 |!<(! C4 C2!<)!!>(! B,4!>)! C2 | C4 z4 A,4 | G,2 G,2 D4 C4 | B,4 z4 D4 | %10
w: |||||
w: |||||
w: a- tor,|qui cre- a- sti|nos, Tu|so- lus re- dem-|ptor, qui|
w: |||||
!<(! G,2 A,2 B,6!<)! C2 |[M:2/2] C4 z4 |[M:3/2]!f! D4 C2 B,2 C4 | B,4!p! z4 D4 | C2 B,2 A,6 G,2 | %15
w: |||||
w: |||||
w: re- de- mi- sti|nos|san- gui- ne tu-|o pre-|ti- o- sis- si-|
w: |||||
 [G,,G,]8 z4 ||[M:4/4] B,4 B,2 B,2 | A,6 A,2 | B,3 A, G,2 ^F,2 | [G,,G,]8 | z8 | z8 | z8 | %23
w: ||||||||
w: ||||||||
w: mo.|Ad te so-||fu- * * gi-|mus,||||
w: ||||||||
 z4 z2!f! D2 | D2 D2 D2 D2 | D4 G,4 | A,4 z4 ||[M:2/2]!p! G,8 | [G,B,]8 | [C,C]8 | [D,A,]8 || %31
w: ||||||||
w: ||||||||
w: ||||||||
w: ||||||||
[M:3/4] B,2 B,2 B,2 | C3 B, A,2 | G,2 G,2 ^F,2 | G,4 z2 | D2 D2 D2 | _E3 D C2 | B,2 G,2 A,2 | %38
w: |||||||
w: |||||||
w: Ad te pre-|ces _ _|ef- fun- di-|mus,||||
w: |||||||
!f! G,4!f! D2 | D2 B,2 C2 | D2 F2 E2 | D2 B,2 C2 | D4 z2 ||[M:2/2]!p! [G,B,]8 | [C,C]8 | [D,A,]8 | %46
w: ||||||||
w: ||||||||
w: * et|con- * *||pe- * ti-|mus:|Rex|be-|ni-|
w: ||||||||
 [G,,G,]8 |] z8 | z8 | z4 B,4 | C4 C4 | D6 C2 | B,4 A,4 | G,8 | z8 | z8 | z4 B,4 | C4 C4 | D6 C2 | %59
w: |||||||||||||
w: |||||||||||||
w: gne.|||||||||||||
w: |||No-|bis es-|set fal-|la- ci-|a;|||Ma-|gna es-|set stul-|
 B,4 A,4 |!f! G,8 |!f! B,4 C4 | D8 | D8 | z8 ||[M:3/4]!p! B,2 B,2 B,2 | B,4 B,2 | B,4 C2 | A,4 z2 | %69
w: ||||||||||
w: ||||||||||
w: ||* pec-|ca-|tum.||||||
w: ti- ti-|a|et pec-|ca-|tum.||||||
!f! D2 D2 D2 | B,4 C2 | D2 G,2 A,2 | G,4 z2 ||[M:2/2]!p! [D,A,]8 | [_E,G,]8 | [F,C]8 | [C,C]8 || %77
w: ||||||||
w: ||||||||
w: Re- ple nos|tu- a|gra- * ti-|a,|O|rex|re-|gum.|
w: ||||||||
[M:3/4]!f! D2 D2 B,2 | C4 D2 | C2 D2 B,2 | A,4 D2 | C4 A,2 | B,4 C2 | B,2 C2 A,2 | G,4 z2 || %85
w: ||||||||
w: ||||||||
w: Ut ad tu-|a ser-|vi- * ti-||* sta-|cum lae-|ti- * ti-||
w: |||* si-|sta- mus|cum lae-|ti- * ti-|a|
[M:2/2]!pp! [D,F,]8 | [G,B,]8 | [D,A,]8 | [G,,G,]8- | [G,,G,]8 |] %90
w: |||||
w: |||||
w: in|ae-|ter-|num.|_|
w: |||||
V:4
 G,,4 G,4 |[M:3/2] F,4 x4 C,4 | C,2 C,2 F,3 _E, D,2 C,2 | B,,4 x4 G,,4 | G,4 F,4 C,4 | %5
w: |||||
w: |||||
w: ||* * mi- ra- bi- li-|a. *||
 _E,4 B,,4 x4 | F,4 F,2 G,4 C,2 | C,4 x4 D,4 | _E,2 E,2 B,,4 C,4 | G,,4 x4 D,4 | _E,2 D,2 G,6 F,2 | %11
w: ||||||
w: ||||||
w: ||||||
[M:2/2] F,4 x4 |[M:3/2] B,,4 F,2 G,2 F,4 | B,,4 x4 B,,4 | F,2 G,2 D,6 G,,2 | x12 || %16
w: |||||
w: |||||
w: |||||
[M:4/4] G,4 D,2 E,2 | F,3 E, D,2 C,2 | B,,3 C, B,,2 A,,2 | x8 | x8 | x8 | x8 | x6 G,2 | %24
w: ||||||||
w: ||||||||
w: |lum _ _ con-|||||||
 G,2 G,2 G,2 G,2 | D,4 _E,4 | D,4 x4 ||[M:2/2] x8 | x8 | x8 | x8 ||[M:3/4] D,2 D,2 D,2 | %32
w: ||||||||
w: ||||||||
w: ||||||||
 _E,3 D, C,2 | B,,2 G,,2 A,,2 | G,,4 x2 | z6 | z6 | z6 | z4 G,2 | F,2 G,2 E,2 | D,4 C,2 | %41
w: |||||||||
w: |||||||||
w: |||||||* * ce-|de quod|
 F,2 G,2 E,2 | D,4 x2 ||[M:2/2] x8 | x8 | x8 | x8 |] G,8 | F,4 G,4 | B,6 A,G, | F,2 _E,D, C,4 | %51
w: ||||||||||
w: ||||||||||
w: ||||||D'un|aul- tre\_a-|mer, _ _|_ _ _ _|
 B,,4 z4 | z8 | z8 | G,8 | F,4 G,4 | B,6 A,G, | F,2 _E,D, C,4 | B,,4 G,,4 | z8 | z4 B,4- | %61
w: ||||||||||
w: ||||||||||
w: |||D'un|aul- tre\_a-|mer, _ _|_ _ _ _||||
 B,4 A,4 | G,8 | D,8 | x8 ||[M:3/4] z6 | z6 | z6 | z6 | G,2 G,2 G,2 | G,4 F,2 | D,2 _E,2 D,2 | %72
w: |||||||||||
w: |||||||||||
w: |||||||||||
 G,,4 x2 ||[M:2/2] x8 | x8 | x8 | x8 ||[M:3/4] B,,2 B,,2 B,,2 | F,4 B,,2 | F,2 D,2 E,2 | %80
w: ||||||||
w: ||||||||
w: ||||||||
 F,2 D,2 z2 | F,2 F,2 F,2 | B,,4 F,2 | G,2 C,2 D,2 | =E,2 C,2 x2 ||[M:2/2] x8 | x8 | x8 | x8 | %89
w: |||||||||
w: |||||||||
w: a _|si- * *|||a *|||||
 x8 |] %90
w: |
w: |
w: |

